X:1
T:Title
%%score { ( 1 3 ) | ( 2 4 ) }
L:1/8
M:4/4
K:A
V:1 treble nm="Grand Piano"
V:3 treble 
V:2 treble 
V:4 treble 
V:1
 z4 z2[Q:1/4=108] E2 | A3 E A2 B2 | c4 A2 F2 | E3 G [GB]2 [Gd]2 | c6 E2 | A3 E A2 B2 | c3 d c2 BA | %7
 A2 GA [EAc]2 [DGB]2 | A6 A2 | z4 z2 d2 | c3 B A2 A2 | z4 z2 d2 | c3 B A2 [A,EA]2 | %13
 [A,DF]3 [B,EG] [A,EA]2 [EB]2 | [Ec]2 [CEe]4 [EA]2 | z4 [EG]4 |[M:3/4] [CEA]6 |] %17
V:2
 z4 z2 [A,C]2 | [A,CE]3 [A,C] [A,CE]2 [A,DG]2 | [A,EA]4[K:bass] [A,CE]2 [D,A,D]2 | %3
 [E,G,B,]3 [E,B,E] [E,E]2 [E,E]2 | [A,EA]6 [A,C]2 | [A,CE]3 [A,C] [A,CE]2 [A,DG]2 | %6
 [A,EA]3 [A,FA] [A,EA]2[K:bass] [D,D]2 | z2 [E,E]2 z4 | [A,CE]6 [A,CE]2 | %9
 [B,D]3 [A,B,D] [G,B,D]2 [F,A,F][G,B,] | [A,CE]3 [A,DE] [A,CE]2 [A,CE]2 | %11
 [B,D]3 [A,B,D] [G,B,D]2 [F,A,F][G,B,] | C4 z4 | D,3 D, C,2 [B,,G,]2 | [A,,A,]2 A,,4 C,2 | %15
 D,4 z2 D2 |[M:3/4] A,6 |] %17
V:3
 x8 | x8 | x8 | x8 | x8 | x8 | z4 z2 F2 | x8 | x8 | G3 F E2 z E | x8 | G3 F E2 z E | x8 | x8 | x8 | %15
 [DFB]4 B,2 z2 |[M:3/4] x6 |] %17
V:4
 x8 | x8 | x4[K:bass] x4 | x8 | x8 | x8 | x6[K:bass] x2 | [E,CE]2 B,C E,2 E,2 | x8 | x8 | x8 | x8 | %12
 [A,E]3- [A,-DE-] [A,CE]2 C,2 | x8 | x8 | z4 E,4 |[M:3/4] x6 |] %17

